actions/22/list-add.svg

<?xml version="1.0" encoding="UTF-8" standalone="no"?>
<!-- Created with Inkscape (http://www.inkscape.org/) -->
<svg
   xmlns:svg="http://www.w3.org/2000/svg"
   xmlns="http://www.w3.org/2000/svg"
   xmlns:xlink="http://www.w3.org/1999/xlink"
   version="1.0"
   width="22"
   height="22"
   id="svg2">
  <defs
     id="defs4">
    <linearGradient
       id="linearGradient2264">
      <stop
         id="stop2266"
         style="stop-color:#d7e866;stop-opacity:1"
         offset="0" />
      <stop
         id="stop2268"
         style="stop-color:#8cab2a;stop-opacity:1"
         offset="1" />
    </linearGradient>
    <linearGradient
       x1="24.103895"
       y1="15.180944"
       x2="24.103895"
       y2="34.224861"
       id="linearGradient2401"
       xlink:href="#linearGradient2264"
       gradientUnits="userSpaceOnUse"
       gradientTransform="matrix(0.8988874,0,0,0.8934652,-10.463705,-9.565972)" />
    <linearGradient
       id="linearGradient4222">
      <stop
         id="stop4224"
         style="stop-color:#ffffff;stop-opacity:1"
         offset="0" />
      <stop
         id="stop4226"
         style="stop-color:#ffffff;stop-opacity:0"
         offset="1" />
    </linearGradient>
    <linearGradient
       x1="24.138529"
       y1="6.5316639"
       x2="24.138529"
       y2="45.690399"
       id="linearGradient2398"
       xlink:href="#linearGradient4222"
       gradientUnits="userSpaceOnUse"
       gradientTransform="matrix(0.5399382,0,0,0.5366811,-1.848923,-1.5061981)" />
  </defs>
  <g
     id="layer1">
    <path
       d="M 7.566379,7.4948189 L 7.566379,1.4999999 L 14.5,1.4999999 L 14.5,7.4948189 L 20.5,7.4948189 L 20.5,14.5 L 14.5,14.5 L 14.5,20.5 L 7.560272,20.5 L 7.532403,14.5 L 1.5,14.5 L 1.5,7.4948189 L 7.566379,7.4948189 z"
       id="path2262"
       style="fill:url(#linearGradient2401);fill-opacity:1;fill-rule:evenodd;stroke:#699536;stroke-width:1;stroke-linecap:butt;stroke-linejoin:round;stroke-miterlimit:4;stroke-dasharray:none;stroke-opacity:1;display:inline" />
    <path
       d="M 8.5,8.4948189 L 8.5,2.4999999 L 13.5,2.4999999 L 13.5,8.4948189 L 19.5,8.4948189 L 19.5,13.5 L 13.5,13.5 L 13.5,19.5 L 8.5,19.5 L 8.5,13.5 L 2.5,13.5 L 2.5,8.4948189 L 8.5,8.4948189 z"
       id="path2272"
       style="opacity:0.4;fill:none;fill-opacity:1;fill-rule:evenodd;stroke:url(#linearGradient2398);stroke-width:1;stroke-linecap:butt;stroke-linejoin:miter;stroke-miterlimit:4;stroke-dasharray:none;stroke-opacity:1;display:inline" />
  </g>
</svg>

<?xml version="1.0" encoding="UTF-8" standalone="no"?>
<!-- Created with Inkscape (http://www.inkscape.org/) -->

<svg
   xmlns:svg="http://www.w3.org/2000/svg"
   xmlns="http://www.w3.org/2000/svg"
   xmlns:xlink="http://www.w3.org/1999/xlink"
   version="1.0"
   width="22"
   height="22"
   id="svg2">
  <defs
     id="defs4">
    <linearGradient
       id="linearGradient2264">
      <stop
         id="stop2266"
         style="stop-color:#d7e866;stop-opacity:1"
         offset="0" />
      <stop
         id="stop2268"
         style="stop-color:#8cab2a;stop-opacity:1"
         offset="1" />
    </linearGradient>
    <linearGradient
       x1="24.103895"
       y1="15.180944"
       x2="24.103895"
       y2="34.224861"
       id="linearGradient2401"
       xlink:href="#linearGradient2264"
       gradientUnits="userSpaceOnUse"
       gradientTransform="matrix(0.8988874,0,0,0.8934652,-10.463705,-9.565972)" />
    <linearGradient
       id="linearGradient4222">
      <stop
         id="stop4224"
         style="stop-color:white;stop-opacity:1"
         offset="0" />
      <stop
         id="stop4226"
         style="stop-color:white;stop-opacity:0"
         offset="1" />
    </linearGradient>
    <linearGradient
       x1="24.138529"
       y1="6.5316639"
       x2="24.138529"
       y2="45.690399"
       id="linearGradient2398"
       xlink:href="#linearGradient4222"
       gradientUnits="userSpaceOnUse"
       gradientTransform="matrix(0.5399382,0,0,0.5366811,-1.848923,-1.5061981)" />
  </defs>
  <g
     id="layer1">
    <path
       d="m 7.566379,7.4948189 0,-5.994819 6.933621,0 0,5.994819 6,0 0,7.0051811 -6,0 0,6 -6.939728,0 -0.027869,-6 -6.032403,0 0,-7.0051811 6.066379,0 z"
       id="path2262"
       style="fill:url(#linearGradient2401);fill-opacity:1;fill-rule:evenodd;stroke:#699536;stroke-width:1;stroke-linecap:butt;stroke-linejoin:round;stroke-miterlimit:4;stroke-opacity:1;stroke-dasharray:none;display:inline" />
    <path
       d="m 8.5,8.4948189 0,-5.994819 5,0 0,5.994819 6,0 0,5.0051811 -6,0 0,6 -5,0 0,-6 -6,0 0,-5.0051811 6,0 z"
       id="path2272"
       style="opacity:0.4;fill:none;stroke:url(#linearGradient2398);stroke-width:1;stroke-linecap:butt;stroke-linejoin:miter;stroke-miterlimit:4;stroke-opacity:1;stroke-dasharray:none;display:inline" />
  </g>
</svg>
